theme/images/module-icons/image-card.svg

<svg viewBox="0 0 32 32" xmlns="http://www.w3.org/2000/svg"><path d="m29.79 6.5h-27.97c-1.03 0-1.88.85-1.88 1.89v15.68c0 1.04.85 1.89 1.89 1.89h27.96c1.04 0 1.89-.85 1.89-1.89v-15.68c0-1.04-.85-1.89-1.89-1.89zm-.61 16.95h-26.74v-14.45h26.73v14.45z"/><path d="m18.44 17.06h7.59c.41 0 .75-.34.75-.75s-.34-.75-.75-.75h-7.59c-.41 0-.75.34-.75.75s.34.75.75.75z"/><path d="m18.44 13.71h7.59c.41 0 .75-.34.75-.75s-.34-.75-.75-.75h-7.59c-.41 0-.75.34-.75.75s.34.75.75.75z"/><path d="m18.44 20.42h4.18c.41 0 .75-.34.75-.75s-.34-.75-.75-.75h-4.18c-.41 0-.75.34-.75.75s.34.75.75.75z"/><path d="m5.23 21.46h8.99c.41 0 .75-.34.75-.75v-8.96c0-.41-.34-.75-.75-.75h-8.99c-.41 0-.75.34-.75.75v8.96c0 .41.34.75.75.75zm.75-8.96h7.49v7.46h-7.49z"/></svg>

<?xml version="1.0" encoding="UTF-8"?><svg id="Lager_1" xmlns="http://www.w3.org/2000/svg" viewBox="0 0 32 32"><path d="M29.79,6.5H1.82C.79,6.5-.06,7.35-.06,8.39v15.68c0,1.04,.85,1.89,1.89,1.89H29.79c1.04,0,1.89-.85,1.89-1.89V8.39c0-1.04-.85-1.89-1.89-1.89Zm-.61,16.95H2.44V9H29.17v14.45Z"/><path d="M18.44,17.06h7.59c.41,0,.75-.34,.75-.75s-.34-.75-.75-.75h-7.59c-.41,0-.75,.34-.75,.75s.34,.75,.75,.75Z"/><path d="M18.44,13.71h7.59c.41,0,.75-.34,.75-.75s-.34-.75-.75-.75h-7.59c-.41,0-.75,.34-.75,.75s.34,.75,.75,.75Z"/><path d="M18.44,20.42h4.18c.41,0,.75-.34,.75-.75s-.34-.75-.75-.75h-4.18c-.41,0-.75,.34-.75,.75s.34,.75,.75,.75Z"/><path d="M5.23,21.46H14.22c.41,0,.75-.34,.75-.75V11.75c0-.41-.34-.75-.75-.75H5.23c-.41,0-.75,.34-.75,.75v8.96c0,.41,.34,.75,.75,.75Zm.75-8.96h7.49v7.46H5.98v-7.46Z"/></svg>
